X:275
%%etbk:tnset id:84,pos:1,rep:3x,ant:
%%etbk:wsite http://www.thesession.org/tunes/display/373
%%etbk:color #f5f5b6
%%etbk:pldat 2016-09-17T14:03,2016-09-13T15:34,2016-09-12T18:50,2016-08-05T17:07,2015-07-07T10:19,2014-12-31T15:04,2014-09-24T16:51,2014-05-19T19:05,2014-05-17T14:29,2014-05-09T19:07,2014-03-27T18:08,2014-03-15T16:26,2014-03-09T15:18,2013-11-27T18:17,2013-10-21T18:39,2013-09-02T18:07,2013-08-28T17:24,2013-05-15T15:26,2013-05-05T13:35
T: Connie The Soldier
S: Angelina Carberry & Martin Quinn
Z: Piano Box Version by Martin Fleischmann
H: Created 2013-02-19 /  Last Modified 2016-09-12
M: 6/8
L: 1/8
R: jig
K: Dmix
!1!D!2!E!4!G !3!A2A|!3!AdB !5!cA!2!G|!1!E!2!GG EGG|!1!E!5!c!3!A !2!G!1!E!3!A|
!1!DE/F/!4!G !3!~A3|AdB cAG|EGG EAG|1 !1!~E2!1!D D2A:|2 !1!EGA !1!D2!4!e||
|:!5!f!3!dd ede|!5!f!1!d!2!^c !1!d2e|!3!fe!1!d !3!~c3|!2!B!1!A!2!G !1!A2!4!g|
!3!fdd e!1!d!3!^c|!4!d!5!e!4!d !3!c!1!A!2!G|!1!E!2!GG EAG|1 ~E2D D2!4!e:|2 ~E2D D2A||


